X:15
T:The Gooseberry Bush
R:Reel
C:Trad.
D:Matt Molloy & Sean Keane: Contentment is Wealth (1985)
Z:Gwen 2018-05-31
M:2/2
Q:1/2=92
K:Dmix
|: ADFD EFGB | AGAB c2AG | ABcA dcAG | FGGF GGGA |
   D2FD EFGB | ABcA d2de | fdd^c dfed |1 cAGE EDD2 :|2 cAGE FDD2
|: Adde fded | c2cd cAG2 | AAAF GEEE | FGAB cAG2 |
   Ad^cd fded | c2cd cAG2 | ABcA dcAG | ABcA d2dc :|
|: Adde fd^cd | efge aged | ^cdef g2ef | ggge d^cAd |
   d2^cd GAAG | FGAB c2AG | ABcA dcAG |1 ABcA d2dc :|2 ABcA d2dB ||

